build/dist/assets/images/services/service3.svg

<svg width="33" height="43" viewBox="0 0 33 43" fill="none" xmlns="http://www.w3.org/2000/svg">
<path d="M6.40223 5.01307C5.99496 5.01307 5.58769 4.85845 5.2769 4.54922L4.28887 3.56321C4.1405 3.41595 4.02286 3.24079 3.94276 3.04787C3.86266 2.85494 3.82169 2.64808 3.82223 2.43925C3.82223 2.01522 3.98829 1.61618 4.28887 1.31621L4.93642 0.668131C5.82982 -0.22252 7.28264 -0.22252 8.17604 0.668131C9.06943 1.55878 9.06943 3.00956 8.17604 3.90114L7.52848 4.5483C7.38073 4.69604 7.20515 4.81316 7.01186 4.89292C6.81857 4.97269 6.61139 5.01352 6.40223 5.01307ZM5.78622 2.43925L6.40223 3.054L6.86423 2.59294C6.93992 2.51024 6.98074 2.40161 6.9782 2.28964C6.97566 2.17767 6.92996 2.07098 6.8506 1.99179C6.77125 1.91259 6.66435 1.86698 6.55215 1.86445C6.43995 1.86192 6.33109 1.90265 6.24823 1.97819L5.78622 2.43925ZM22.4287 5.01307C22.0214 5.01307 21.6132 4.85845 21.3033 4.54922L20.6548 3.90207C20.2216 3.47063 19.9832 2.89661 19.9832 2.28556C19.9832 1.67451 20.2216 1.1005 20.6548 0.668131C21.0849 0.240264 21.6674 0 22.2747 0C22.8819 0 23.4644 0.240264 23.8945 0.668131L24.542 1.31529C24.8426 1.61526 25.0087 2.01429 25.0087 2.43832C25.0087 2.86328 24.8426 3.26232 24.5411 3.56229L23.5549 4.5483C23.4072 4.69604 23.2316 4.81316 23.0383 4.89292C22.845 4.97269 22.6378 5.01352 22.4287 5.01307ZM22.2747 1.85135C22.1883 1.8505 22.1036 1.87542 22.0316 1.92293C21.9595 1.97044 21.9033 2.03835 21.8702 2.11796C21.8371 2.19757 21.8286 2.28524 21.8458 2.3697C21.863 2.45417 21.9051 2.53159 21.9666 2.59201L22.4287 3.05308L23.0447 2.43925L22.5827 1.97819C22.5009 1.89688 22.3901 1.85127 22.2747 1.85135ZM21.1131 43C16.9486 43 13.5605 39.6189 13.5605 35.4619V29.8384H15.416V35.4619C15.4175 36.9694 16.0181 38.4148 17.0862 39.4809C18.1543 40.5469 19.6025 41.1466 21.1131 41.1483C22.6238 41.1466 24.0722 40.547 25.1404 39.4809C26.2086 38.4149 26.8095 36.9695 26.8112 35.4619V34.2287H28.6667V35.4619C28.6667 39.6179 25.2786 43 21.1131 43Z" fill="white"/>
<path d="M27.4031 34.4C26.0549 34.3986 24.7623 33.8712 23.8089 32.9337C22.8555 31.9962 22.3191 30.725 22.3173 29.399C22.3188 28.0728 22.8551 26.8014 23.8086 25.8636C24.762 24.9259 26.0547 24.3984 27.4031 24.397C28.5218 24.397 29.5845 24.7484 30.4755 25.4119C30.669 25.5602 30.7953 25.7776 30.827 26.0169C30.8588 26.2562 30.7934 26.4981 30.6451 26.6903C30.4967 26.8826 30.2774 27.0096 30.0345 27.0439C29.7917 27.0782 29.5448 27.017 29.3475 26.8737C28.7889 26.4549 28.1054 26.2291 27.4031 26.2313C26.5495 26.2323 25.7311 26.5662 25.1275 27.1599C24.5239 27.7536 24.1843 28.5585 24.1833 29.398C24.1833 31.1434 25.6276 32.5639 27.4031 32.5639C29.1786 32.5639 30.6229 31.1434 30.6229 29.398C30.6229 29.1547 30.7212 28.9213 30.8962 28.7492C31.0711 28.5771 31.3084 28.4804 31.5559 28.4804C31.8033 28.4804 32.0406 28.5771 32.2156 28.7492C32.3906 28.9213 32.4889 29.1547 32.4889 29.398C32.4874 30.7242 31.9511 31.9956 30.9977 32.9334C30.0442 33.8711 28.7515 34.3986 27.4031 34.4ZM14.0771 26.5011C6.31547 26.5011 0 20.2897 0 12.6559C0 9.0148 1.42562 5.57645 4.01376 2.97498L5.34795 4.25782C3.10941 6.49782 1.85841 9.51511 1.866 12.6559C1.866 19.2785 7.34364 24.6658 14.0771 24.6658C20.8105 24.6658 26.2882 19.2785 26.2882 12.6559C26.2927 11.0782 25.9789 9.51535 25.365 8.05773C24.7512 6.60012 23.8494 5.27674 22.712 4.16422L24.0313 2.8667C25.3424 4.14926 26.3819 5.67485 27.0896 7.35517C27.7973 9.03549 28.1592 10.8372 28.1542 12.6559C28.1551 20.2897 21.8396 26.5011 14.0771 26.5011Z" fill="white"/>
<path d="M14.3333 30.5778C13.3199 30.5769 12.3484 30.2158 11.6318 29.5739C10.9152 28.9319 10.5122 28.0615 10.5111 27.1536V25.8H12.4874V27.1527C12.4874 28.0646 13.3155 28.8064 14.3333 28.8064C15.3511 28.8064 16.1792 28.0646 16.1792 27.1527V25.8H18.1556V27.1527C18.1545 28.0607 17.7515 28.9312 17.035 29.5733C16.3184 30.2154 15.3468 30.5767 14.3333 30.5778Z" fill="white"/>
<path d="M27.2333 31.5334C28.0249 31.5334 28.6667 30.8917 28.6667 30.1001C28.6667 29.3085 28.0249 28.6667 27.2333 28.6667C26.4417 28.6667 25.8 29.3085 25.8 30.1001C25.8 30.8917 26.4417 31.5334 27.2333 31.5334Z" fill="white"/>
</svg>

<svg width="33" height="43" fill="none" xmlns="http://www.w3.org/2000/svg"><path d="M6.402 5.013a1.59 1.59 0 01-1.125-.464l-.988-.986a1.58 1.58 0 01-.467-1.124c0-.424.166-.823.467-1.123l.647-.648a2.298 2.298 0 013.24 0c.893.89.893 2.342 0 3.233l-.648.647a1.586 1.586 0 01-1.126.465zM5.786 2.44l.616.615.462-.461a.435.435 0 00-.616-.615l-.462.461zM22.43 5.013a1.59 1.59 0 01-1.126-.464l-.648-.647a2.266 2.266 0 01-.672-1.616c0-.611.239-1.185.672-1.618a2.297 2.297 0 013.24 0l.647.647a1.582 1.582 0 01-.001 2.247l-.986.986a1.586 1.586 0 01-1.126.465zm-.154-3.162a.434.434 0 00-.308.741l.462.461.616-.614-.462-.46a.437.437 0 00-.308-.128zM21.113 43c-4.164 0-7.553-3.381-7.553-7.538v-5.624h1.856v5.624a5.686 5.686 0 001.67 4.019 5.71 5.71 0 004.027 1.667 5.71 5.71 0 004.027-1.667 5.687 5.687 0 001.671-4.02V34.23h1.856v1.233c0 4.156-3.388 7.538-7.554 7.538z" fill="#fff"/><path d="M27.403 34.4a5.135 5.135 0 01-3.594-1.466 4.966 4.966 0 01-1.492-3.535 4.966 4.966 0 011.492-3.535 5.134 5.134 0 013.594-1.467c1.119 0 2.181.351 3.073 1.015a.906.906 0 01.17 1.278.945.945 0 01-1.298.183 3.226 3.226 0 00-1.945-.642 3.251 3.251 0 00-2.275.929 3.144 3.144 0 00-.945 2.238c0 1.745 1.445 3.166 3.22 3.166 1.776 0 3.22-1.42 3.22-3.166a.91.91 0 01.273-.649.94.94 0 011.32 0 .91.91 0 01.273.649 4.967 4.967 0 01-1.491 3.535 5.135 5.135 0 01-3.595 1.467zm-13.326-7.899C6.315 26.501 0 20.29 0 12.656c0-3.641 1.426-7.08 4.014-9.681l1.334 1.283a11.839 11.839 0 00-3.482 8.398c0 6.623 5.478 12.01 12.211 12.01 6.734 0 12.211-5.387 12.211-12.01.005-1.578-.31-3.14-.923-4.598a11.918 11.918 0 00-2.653-3.894l1.32-1.297a13.743 13.743 0 013.058 4.488 13.557 13.557 0 011.064 5.3c.001 7.635-6.314 13.846-14.077 13.846z" fill="#fff"/><path d="M14.333 30.578c-1.013-.001-1.985-.362-2.701-1.004-.717-.642-1.12-1.513-1.12-2.42V25.8h1.975v1.353c0 .912.829 1.653 1.846 1.653 1.018 0 1.846-.741 1.846-1.653V25.8h1.977v1.353c-.002.908-.404 1.778-1.121 2.42-.717.642-1.688 1.004-2.702 1.005zm12.9.955a1.433 1.433 0 100-2.866 1.433 1.433 0 000 2.866z" fill="#fff"/></svg>
